X:1
T:Title
%%score { 1 | ( 2 3 ) }
L:1/8
M:4/4
K:Ab
V:1 treble nm="Grand Piano"
V:2 bass 
V:3 bass 
V:1
 z4 z2[Q:1/4=100] [CE]2 | [Ec]3 [Fd] [Ec][DB][CA][DF] | [CE]6 [CE]2 | [DF]3 [FA] [FA]2 [=EB]2 | %4
[M:3/4] [Ec]6 |[M:1/4] [Ec]2 |[M:4/4] B3 c dBed | c6 [CA]2 | [=DF]3 [DG] [DA]2 [DB]2 |[M:3/4] B6 | %10
[M:1/4] EE |[M:4/4] [Ec]3 [CE] D[DE] [Ec]>[DB] | [CA]4 z2 [CE]2 | E3 F GABc |[M:3/4] [Gd]6 | %15
[M:1/4] [EGB]2 |[M:4/4] [EAe]3 [EAc] [EGd][B,EG][EGc][DGB] | A6 F2 | E3 c dG [Gc]>[EB] | %19
[M:3/4] [CEA]6 |] %20
V:2
 z4 z2 [A,,A,]2 | [A,,A,]3 [A,,A,] [A,,A,][A,,A,][A,,E,][A,,F,] | [A,,A,]6 [A,,A,]2 | %3
 [D,A,]3 [D,D] [D,D]2 [D,A,]2 |[M:3/4] [A,,A,]6 |[M:1/4] [A,,A,]2 | %6
[M:4/4] [E,G,E]3 [E,A,E] [E,B,E][E,DE][E,CE][E,B,E] | [A,E]6 [A,,A,]2 | %8
 [B,,A,]3 [B,,G,] [B,,F,]2 [B,,A,]2 |[M:3/4] [E,G,D]6 |[M:1/4] D z | %11
[M:4/4] [A,,A,]3 [A,,A,] [B,,G,][B,,G,] [E,G,]>[E,G,] | [A,,E,]4 z2 [A,,A,]2 | %13
 [E,G,D]3 [E,A,D] [E,B,D][E,CE][E,G,E][E,A,E] |[M:3/4] [E,B,]6 |[M:1/4] D,2 | %16
[M:4/4] C,3 A,, E,E,E,=E, | [F,CF]6 [=D,A,_C]2 | [E,A,C]3 [E,A,E] [E,G,E][E,B,E] [E,E]>[E,D] | %19
[M:3/4] [B,,A,]6 |] %20
V:3
 x8 | x8 | x8 | x8 |[M:3/4] x6 |[M:1/4] x2 |[M:4/4] x8 | x8 | x8 |[M:3/4] x6 |[M:1/4] [E,G,]2 | %11
[M:4/4] x8 | x8 | x8 |[M:3/4] x6 |[M:1/4] x2 |[M:4/4] x8 | x8 | x8 |[M:3/4] x6 |] %20

